X:1
T:Title
%%score { 1 | 2 }
L:1/8
Q:1/4=100
M:4/4
K:Ab
V:1 treble nm="Grand Piano"
V:2 bass 
V:1
 [CA]2 [CE]2 [CA]2 [CG][CF] | [DG]2 [DE]2 [DG]4 | B2 E2 B2 AG | [CA]2 [CE]2 [CA]4 | c2 c2 c2 dd | %5
w: Harold~F.~Sayles * * * *|||||
 F2 F2 [Fd]4 | c2 BA E2 GB | [CA]6 z2 |[M:1/4] [Ec]>[B,EB] | %9
w: ||||
[M:4/4] [CEA]2 [CEA][CEA] [CEA][CEA] [B,EG]>[CEA] | [DGB]6 [Gd]>[Ac] | B2 BB BB [CA]>[DB] | %12
w: |||
[M:3/4] [Ec]6 |[M:1/4] [CE]>[CE] |[M:4/4] [EA][EA][EA]B c2 A>A |[M:9/8] BBc c [Fd]2- [Fd]c>B | %16
w: ||||
[M:4/4] A2 EE G2 B2 | [CEA]6 z2 |] %18
w: ||
V:2
 [A,,E,]2 [A,,E,]2 [A,,E,]2 [A,,E,][A,,E,] | [B,,E,]2 [B,,E,]2 [B,,E,]4 | %2
 [E,G,D]2 [E,G,D]2 [E,G,D]2 [E,F,D][E,D] | [A,,E,]2 [A,,E,]2 [A,,E,]4 | %4
 [A,E]2 [A,E]2 [A,E]2 [A,F][A,F] | [D,A,D]2 [D,A,D]2 [D,A,]4 | %6
 [E,A,E]2 [E,G,D][E,A,C] [E,G,B,]2 [E,B,E][E,G,D] | [A,,A,]6 z2 |[M:1/4] [A,,A,]>A,, | %9
[M:4/4] A,,2 A,,A,, A,,A,, E,>E, | E,6 [E,B,]>[E,A,] | %11
 [E,G,E]2 [E,G,E][E,G,E] [E,G,D][E,G,D] [A,,A,]>[A,,A,] |[M:3/4] [A,,A,]6 | %13
[M:1/4] [A,,A,]>[A,,A,] |[M:4/4] [C,A,][C,A,][C,A,][E,G,E] [E,A,E]2 [E,A,C]>[E,A,C] | %15
[M:9/8] [E,G,D][E,G,D][E,A,E] [E,A,E] [D,A,]2- [D,A,][E,A,E]>[E,G,D] | %16
[M:4/4] [E,A,C]2 [E,A,C][E,A,C] [E,B,E]2 [E,DE]2 | A,,6 z2 |] %18

